icons/svg/shopping/paint.svg

<?xml version="1.0" encoding="UTF-8" standalone="no"?>
<!-- Created with Inkscape (http://www.inkscape.org/) -->

<svg
   xmlns:dc="http://purl.org/dc/elements/1.1/"
   xmlns:cc="http://creativecommons.org/ns#"
   xmlns:rdf="http://www.w3.org/1999/02/22-rdf-syntax-ns#"
   xmlns:svg="http://www.w3.org/2000/svg"
   xmlns="http://www.w3.org/2000/svg"
   xmlns:sodipodi="http://sodipodi.sourceforge.net/DTD/sodipodi-0.dtd"
   xmlns:inkscape="http://www.inkscape.org/namespaces/inkscape"
   version="1.0"
   width="580"
   height="580"
   id="svg2"
   sodipodi:version="0.32"
   inkscape:version="0.91 r"
   sodipodi:docname="paint.svg"
   inkscape:output_extension="org.inkscape.output.svg.inkscape">
  <metadata
     id="metadata10">
    <rdf:RDF>
      <cc:Work
         rdf:about="">
        <dc:format>image/svg+xml</dc:format>
        <dc:type
           rdf:resource="http://purl.org/dc/dcmitype/StillImage" />
        <cc:license
           rdf:resource="http://web.resource.org/cc/PublicDomain" />
        <dc:language>en</dc:language>
        <dc:title></dc:title>
      </cc:Work>
    </rdf:RDF>
  </metadata>
  <sodipodi:namedview
     inkscape:window-height="1004"
     inkscape:window-width="1920"
     inkscape:pageshadow="2"
     inkscape:pageopacity="0.0"
     guidetolerance="10.0"
     gridtolerance="10.0"
     objecttolerance="10.0"
     borderopacity="1.0"
     bordercolor="#666666"
     pagecolor="#ffffff"
     id="base"
     showgrid="false"
     inkscape:zoom="0.5"
     inkscape:cx="467.39999"
     inkscape:cy="217.71336"
     inkscape:window-x="1680"
     inkscape:window-y="0"
     inkscape:current-layer="svg2"
     inkscape:window-maximized="1"
     inkscape:snap-bbox="true" />
  <defs
     id="defs4">
    <inkscape:perspective
       sodipodi:type="inkscape:persp3d"
       inkscape:vp_x="0 : 290 : 1"
       inkscape:vp_y="0 : 1000 : 0"
       inkscape:vp_z="580 : 290 : 1"
       inkscape:persp3d-origin="290 : 193.33333 : 1"
       id="perspective12" />
    <style
       type="text/css"
       id="style6">
   
    .fil0 {fill:#EF7900}
   
  </style>
    <inkscape:perspective
       id="perspective6807"
       inkscape:persp3d-origin="29.116032 : 19.410688 : 1"
       inkscape:vp_z="58.232063 : 29.116032 : 1"
       inkscape:vp_y="0 : 1000 : 0"
       inkscape:vp_x="0 : 29.116032 : 1"
       sodipodi:type="inkscape:persp3d" />
    <inkscape:perspective
       id="perspective6954"
       inkscape:persp3d-origin="290 : 193.33333 : 1"
       inkscape:vp_z="580 : 290 : 1"
       inkscape:vp_y="0 : 1000 : 0"
       inkscape:vp_x="0 : 290 : 1"
       sodipodi:type="inkscape:persp3d" />
    <inkscape:perspective
       id="perspective2541"
       inkscape:persp3d-origin="240 : 160 : 1"
       inkscape:vp_z="480 : 240 : 1"
       inkscape:vp_y="0 : 1000 : 0"
       inkscape:vp_x="0 : 240 : 1"
       sodipodi:type="inkscape:persp3d" />
    <inkscape:perspective
       id="perspective2750"
       inkscape:persp3d-origin="215 : 143.33333 : 1"
       inkscape:vp_z="430 : 215 : 1"
       inkscape:vp_y="0 : 1000 : 0"
       inkscape:vp_x="0 : 215 : 1"
       sodipodi:type="inkscape:persp3d" />
    <inkscape:perspective
       id="perspective3730"
       inkscape:persp3d-origin="88.929146 : 101.19778 : 1"
       inkscape:vp_z="177.85829 : 151.79668 : 1"
       inkscape:vp_y="0 : 1000 : 0"
       inkscape:vp_x="0 : 151.79668 : 1"
       sodipodi:type="inkscape:persp3d" />
  </defs>
  <g
     id="g1327">
    <path
       d="M 66.275,1.768 C 24.94,1.768 1.704,23.139 1.704,66.804 L 1.704,516.927 C 1.704,557.771 22.598,579.156 63.896,579.156 L 515.92,579.156 C 557.227,579.156 578.149,558.84 578.149,516.927 L 578.149,66.804 C 578.149,24.203 557.227,1.768 514.627,1.768 C 514.624,1.768 66.133,1.625 66.275,1.768 z"
       style="fill:#111111;stroke:#eeeeee;stroke-width:3.40799999"
       id="path1329" />
  </g>
  <g
     style="font-size:36.50536728px;font-style:normal;font-variant:normal;font-weight:bold;font-stretch:normal;text-align:start;line-height:125%;letter-spacing:0px;word-spacing:0px;writing-mode:lr-tb;text-anchor:start;fill:#000000;fill-opacity:1;stroke:none;font-family:Sans;-inkscape-font-specification:Sans Bold"
     id="text3857" />
  <g
     style="font-size:25.55375862px;font-style:normal;font-variant:normal;font-weight:bold;font-stretch:normal;text-align:start;line-height:125%;letter-spacing:0px;word-spacing:0px;writing-mode:lr-tb;text-anchor:start;fill:#000000;fill-opacity:1;stroke:none;font-family:Sans;-inkscape-font-specification:Sans Bold"
     id="text3896" />
  <g
     id="g8144"
     transform="matrix(0.21235796,0,0,0.21235796,323.3892,78.646311)" />
  <g
     transform="matrix(0.21235796,0,0,0.21235796,389.3892,78.646311)"
     id="g8150" />
  <g
     id="g4354"
     transform="matrix(0.31972367,0,0,0.31972367,268.65635,192.82199)" />
  <path
     inkscape:connector-curvature="0"
     d="m 514.12453,490.43055 c -18.79058,0 -30.93252,-25.12315 -30.93252,-63.99043 0,-92.99375 -29.54829,-100.49254 -29.84258,-100.51433 -6.00557,-0.33789 -10.60511,-5.49331 -10.24543,-11.50977 0.33787,-6.01648 5.60229,-10.52884 11.50977,-10.25635 5.15543,0.29427 50.38796,6.23445 50.38796,122.26956 0,25.5373 6.07097,38.38771 9.21,41.65753 4.89384,-4.50146 15.57525,-27.53191 15.57525,-91.48962 0,-140.73317 -145.26731,-166.29227 -151.45816,-167.31683 -5.94019,-0.98094 -9.96207,-6.58324 -8.99201,-12.51251 0.97004,-5.92928 6.60504,-9.97297 12.49071,-9.00291 1.71121,0.28337 169.75828,29.4066 169.75828,188.83225 0,34.89989 -3.03004,62.52989 -9.02471,82.12702 -8.00017,26.20219 -19.88052,31.70639 -28.43656,31.70639 z"
     id="path3"
     style="fill:#ffffff;fill-opacity:1" />
  <path
     inkscape:connector-curvature="0"
     d="M 482.99583,286.03394 261.25827,64.307294 c -4.26168,-4.26166 -11.15009,-4.26166 -15.41177,0 L 130.47628,179.68842 c 26.31117,20.3274 86.1271,33.89716 159.52372,33.89716 18.09302,0 32.81811,14.72511 32.81811,32.81812 0,9.04651 -3.68399,17.25376 -9.62416,23.19395 -0.0218,-0.0217 -0.0437,-0.0437 -0.0763,-0.0653 -5.91838,5.90747 -14.09294,9.56968 -23.11765,9.56968 -18.06031,0 -32.69822,-14.63792 -32.69822,-32.69822 0,-4.18538 0.86105,-8.16366 2.28887,-11.83677 -57.21101,-2.97554 -114.98877,-14.7033 -144.84224,-39.16157 l -62.453609,62.45361 c -15.400864,15.40086 -23.880602,35.89175 -23.880602,57.67967 0,21.77701 8.479738,42.2679 23.891502,57.67966 L 174.10658,495.00835 c 15.40087,15.40086 35.88085,23.8806 57.66877,23.8806 21.79882,0 42.28969,-8.49063 57.69056,-23.9024 L 482.99583,301.44574 c 4.26165,-4.26166 4.26165,-11.161 0,-15.41176 z"
     id="path5"
     style="fill:#ffffff;fill-opacity:1" />
  <path
     inkscape:connector-curvature="0"
     d="m 290,235.3844 c -87.00997,0 -188.00387,-19.27015 -195.56807,-72.94973 -0.294286,-2.12539 -0.501368,-4.28347 -0.501368,-6.51786 0,-27.13952 32.927108,-47.71759 86.301508,-56.818603 L 205.71488,73.615394 C 122.20363,80.852595 71.891959,110.98945 71.891959,155.91681 71.891959,250.0986 238.82729,257.423 290,257.423 c 3.04093,0 5.78759,-1.23163 7.79307,-3.22623 1.99461,-1.99459 3.22623,-4.75214 3.22623,-7.78216 0,-6.09278 -4.93743,-11.03021 -11.0193,-11.03021 z"
     id="path7"
     style="fill:#ffffff;fill-opacity:1" />
</svg>

<svg width="580" height="580" viewBox="0 0 580 580" fill="none" xmlns="http://www.w3.org/2000/svg">
<g clip-path="url(#clip0)">
<path d="M66.2751 1.76863C24.9401 1.76863 1.7041 23.1396 1.7041 66.8046V516.928C1.7041 557.772 22.5981 579.157 63.8961 579.157H515.92C557.227 579.157 578.149 558.841 578.149 516.928V66.8046C578.149 24.2036 557.227 1.76863 514.627 1.76863C514.624 1.76863 66.1331 1.62563 66.2751 1.76863Z" fill="#111111" stroke="#EEEEEE" stroke-width="3.408"/>
<path d="M514.124 490.43C495.334 490.43 483.192 465.307 483.192 426.44C483.192 333.446 453.644 325.948 453.349 325.926C447.344 325.588 442.744 320.432 443.104 314.416C443.442 308.399 448.706 303.887 454.614 304.16C459.769 304.454 505.002 310.394 505.002 426.429C505.002 451.966 511.073 464.817 514.212 468.087C519.105 463.585 529.787 440.555 529.787 376.597C529.787 235.864 384.52 210.305 378.329 209.28C372.389 208.299 368.367 202.697 369.337 196.768C370.307 190.838 375.942 186.795 381.827 187.765C383.539 188.048 551.586 217.171 551.586 376.597C551.586 411.497 548.556 439.127 542.561 458.724C534.561 484.926 522.68 490.43 514.124 490.43V490.43Z" fill="white"/>
<path d="M482.996 286.034L261.258 64.3076C256.996 60.0459 250.108 60.0459 245.846 64.3076L130.476 179.689C156.787 200.016 216.603 213.586 290 213.586C308.093 213.586 322.818 228.311 322.818 246.404C322.818 255.45 319.134 263.658 313.194 269.598C313.172 269.576 313.15 269.554 313.117 269.533C307.199 275.44 299.025 279.102 290 279.102C271.94 279.102 257.302 264.464 257.302 246.404C257.302 242.219 258.163 238.24 259.59 234.567C202.379 231.592 144.602 219.864 114.748 195.406L52.2947 257.859C36.8938 273.26 28.4141 293.751 28.4141 315.539C28.4141 337.316 36.8938 357.807 52.3056 373.219L174.106 495.009C189.507 510.409 209.987 518.889 231.775 518.889C253.574 518.889 274.065 510.399 289.466 494.987L482.996 301.446C487.257 297.184 487.257 290.285 482.996 286.034V286.034Z" fill="white"/>
<path d="M290 235.384C202.99 235.384 101.996 216.114 94.4321 162.435C94.1378 160.309 93.9307 158.151 93.9307 155.917C93.9307 128.777 126.858 108.199 180.232 99.098L205.715 73.6152C122.204 80.8524 71.8921 110.989 71.8921 155.917C71.8921 250.098 238.827 257.423 290 257.423C293.041 257.423 295.788 256.191 297.793 254.197C299.788 252.202 301.019 249.444 301.019 246.414C301.019 240.322 296.082 235.384 290 235.384Z" fill="white"/>
</g>
<defs>
<clipPath id="clip0">
<path d="M0 0H580V580H0V0Z" fill="white"/>
</clipPath>
</defs>
</svg>
